images/marks/gov-mark.svg

<?xml version="1.0" encoding="UTF-8" standalone="no"?>
<svg width="52px" height="37px" viewBox="0 0 52 37" version="1.1" xmlns="http://www.w3.org/2000/svg" xmlns:xlink="http://www.w3.org/1999/xlink">
    <!-- Generator: Sketch 3.7.2 (28276) - http://www.bohemiancoding.com/sketch -->
    <title>gov-mark</title>
    <desc>Created with Sketch.</desc>
    <defs></defs>
    <g id="Page-1" stroke="none" stroke-width="1" fill="none" fill-rule="evenodd">
        <g id="gov-mark">
            <path d="M45.7,16.9 L45.7,16 C45.7,7.5 38.6,0 30.1,0 C23.9,0 18.8,4.1 16.3,9.3 C15.1,8.4 13.6,7.8 11.9,7.8 C8,7.9 4.8,11 4.8,15 C4.8,15.7 4.9,16.5 5.1,17.1 C2,18.9 0,22.3 0,26.1 C0,31.8 4.3,36.9 10,37 L42.1,37 C47.8,37 52,32 52,26.4 C52,22.1 49.4,18.5 45.7,16.9 L45.7,16.9 Z" id="Shape" fill="#7355A6"></path>
            <path d="M17.884542,17.8914707 L17.884542,15.5031897 L31.144542,15.5031897 L31.144542,15.8979913 C31.664542,15.461045 32.077942,15.0734169 32.491732,14.7091029 C32.195072,14.2544789 31.683392,13.9659996 31.094102,13.9659996 L17.919642,13.9659996 C16.998462,13.9659996 16.194542,14.6749004 16.194542,15.5826112 L16.194542,19.4751607 L17.841642,17.8930079 L17.884542,17.8914707 Z M17.884542,28.4412062 L17.884542,24.4409252 C17.364542,23.9219955 16.844542,23.3864128 16.194542,22.8358426 L16.194542,28.5644376 C16.194542,29.4721483 16.998462,30.2345946 17.919642,30.2345946 L23.335052,30.2345946 C22.852492,29.7221979 22.326772,29.0817021 21.758282,28.4412062 L17.884542,28.4412062 Z M40.433328,11.4496194 C40.174108,11.22045 39.994968,11.0918384 39.899678,11.0646814 C39.804388,11.0373963 39.727298,11.0243302 39.673868,11.0243302 L39.241878,11.3078136 C38.925848,11.4834376 38.398698,11.8824665 37.659128,12.503107 L34.965268,14.7521442 C33.909538,15.6300079 32.497088,16.8930657 30.730128,18.5409335 C28.961738,20.1889293 27.049048,22.0257434 24.992578,24.0512475 L19.112808,18.9862062 L16.912428,21.1544128 C21.298108,25.476607 24.478948,28.8531731 26.453518,31.2843674 L28.817568,27.6580079 C33.614828,20.5260864 37.725948,15.461045 41.154568,12.4627558 C40.933568,12.0167145 40.694368,11.6796855 40.433328,11.4496194 Z M31.144542,28.4412062 L30.000542,28.4412062 C29.997552,28.4412062 29.994562,28.4828384 29.991572,28.4871938 L28.873962,30.2345946 L31.094102,30.2345946 C32.015282,30.2345946 32.704542,29.4721483 32.704542,28.5644376 L32.704542,24.5019004 C32.184542,25.2353963 31.664542,25.9968178 31.144542,26.7864211 L31.144542,28.4412062 Z" id="Fill-6" fill="#FFFFFF"></path>
        </g>
    </g>
</svg>

<svg xmlns="http://www.w3.org/2000/svg" width="52" height="37" viewBox="0 0 52 37">
  <g fill="none" fill-rule="evenodd">
    <path fill="#7355A6" d="M45.7 16.9V16c0-8.5-7.1-16-15.6-16-6.2 0-11.3 4.1-13.8 9.3-1.2-.9-2.7-1.5-4.4-1.5C8 7.9 4.8 11 4.8 15c0 .7.1 1.5.3 2.1C2 18.9 0 22.3 0 26.1 0 31.8 4.3 36.9 10 37h32.1c5.7 0 9.9-5 9.9-10.6 0-4.3-2.6-7.9-6.3-9.5z"/>
    <path fill="#FFF" d="M17.885 17.89v-2.387h13.26v.395c.52-.437.933-.825 1.347-1.19-.297-.454-.81-.742-1.398-.742H17.92c-.922 0-1.725.71-1.725 1.617v3.892l1.647-1.582.043-.002zm0 10.55v-4c-.52-.518-1.04-1.054-1.69-1.604v5.728c0 .908.803 1.67 1.725 1.67h5.415c-.483-.512-1.008-1.152-1.577-1.793h-3.873zm22.548-16.99c-.26-.23-.438-.358-.533-.385-.096-.028-.173-.04-.226-.04l-.432.283c-.316.175-.843.574-1.583 1.195l-2.695 2.25c-1.055.877-2.468 2.14-4.235 3.788-1.768 1.65-3.68 3.486-5.737 5.51l-5.88-5.064-2.2 2.168c4.385 4.323 7.566 7.7 9.54 10.13l2.365-3.626c4.797-7.132 8.908-12.197 12.337-15.195-.22-.446-.46-.783-.722-1.013zm-9.288 16.99H30c-.002 0-.005.043-.008.047l-1.118 1.748h2.22c.92 0 1.61-.763 1.61-1.67V24.5c-.52.733-1.04 1.495-1.56 2.284v1.655z"/>
  </g>
</svg>
